img-copy/logo_geo.svg

<svg width="89" height="46" viewBox="0 0 89 46" fill="none" xmlns="http://www.w3.org/2000/svg">
<path d="M44.7404 21.3533C44.3224 20.7432 44.1225 20.022 44.1699 19.2962V16.3135C44.1699 15.3992 44.359 14.7044 44.7372 14.2291C45.1154 13.7537 45.7649 13.517 46.6858 13.5191C47.5512 13.5191 48.1654 13.7213 48.5287 14.1259C48.9249 14.6421 49.1176 15.2733 49.0735 15.91V16.6109H47.5255V15.9009C47.531 15.6685 47.516 15.4361 47.4807 15.2061C47.4584 15.0488 47.3804 14.9033 47.2595 14.7934C47.1006 14.675 46.9003 14.6175 46.6987 14.6326C46.4866 14.6176 46.2762 14.6782 46.1089 14.8025C45.9741 14.9243 45.8842 15.0838 45.8525 15.2576C45.8081 15.5011 45.7878 15.7479 45.7916 15.995V19.6147C45.7672 19.964 45.8355 20.3134 45.9904 20.6312C46.0673 20.7387 46.1743 20.824 46.2993 20.8775C46.4243 20.9311 46.5625 20.9508 46.6987 20.9346C46.897 20.9501 47.0937 20.8912 47.2467 20.7708C47.3728 20.6523 47.454 20.4976 47.4775 20.3308C47.5136 20.0907 47.5297 19.8482 47.5255 19.6056V18.8714H49.0735V19.5419C49.117 20.2056 48.9289 20.8644 48.5383 21.4171C48.1825 21.86 47.5768 22.0815 46.6858 22.0815C45.7949 22.0815 45.1218 21.8449 44.7404 21.3533Z" fill="#AFB1B8"/>
<path d="M51.1856 21.3837C50.7946 20.9194 50.5991 20.2428 50.5991 19.3477V16.2104C50.5991 15.3244 50.7946 14.6538 51.1856 14.1987C51.5766 13.7436 52.2304 13.517 53.147 13.5191C54.0572 13.5191 54.7078 13.7456 55.0988 14.1987C55.4898 14.6538 55.6885 15.3244 55.6885 16.2104V19.3477C55.6885 20.2337 55.4898 20.9134 55.0924 21.3806C54.695 21.8479 54.0476 22.0815 53.147 22.0815C52.2464 22.0815 51.5798 21.8449 51.1856 21.3837ZM53.8681 20.6312C54.0081 20.3404 54.0719 20.0219 54.054 19.7027V15.8615C54.072 15.5485 54.0093 15.2361 53.8713 14.9512C53.7928 14.8414 53.6832 14.7547 53.5551 14.7011C53.4271 14.6474 53.2856 14.629 53.147 14.6478C53.0079 14.6294 52.8662 14.6481 52.7377 14.7017C52.6093 14.7553 52.4991 14.8417 52.4195 14.9512C52.2786 15.2353 52.2147 15.5481 52.2336 15.8615V19.7209C52.2141 20.0402 52.278 20.3591 52.4195 20.6494C52.5097 20.7473 52.6211 20.8257 52.746 20.8795C52.8709 20.9332 53.0066 20.961 53.1438 20.961C53.281 20.961 53.4167 20.9332 53.5416 20.8795C53.6665 20.8257 53.7779 20.7473 53.8681 20.6494V20.6312Z" fill="#AFB1B8"/>
<path d="M57.5505 13.6106H59.2171L60.4702 19.3992L61.7522 13.6106H63.3739L63.5374 21.9658H62.3387L62.2105 16.159L60.9734 21.9658H60.0119L58.7299 16.1378L58.6114 21.9658H57.3999L57.5505 13.6106Z" fill="#AFB1B8"/>
<path d="M65.4061 13.6106H68.0021C69.4977 13.6106 70.2455 14.4014 70.2455 15.9831C70.2455 17.498 69.4581 18.2544 67.8835 18.2524H66.9989V21.9658H65.3965L65.4061 13.6106ZM67.6239 17.1814C67.7822 17.2005 67.943 17.1867 68.0952 17.1411C68.2474 17.0956 68.3873 17.0193 68.5052 16.9175C68.689 16.6353 68.77 16.3039 68.736 15.974C68.7444 15.7191 68.7185 15.4642 68.6591 15.2155C68.6362 15.1324 68.5961 15.0545 68.5411 14.9863C68.486 14.918 68.4172 14.8608 68.3386 14.8181C68.1161 14.7171 67.8702 14.6711 67.6239 14.6846H67.0021V17.1814H67.6239Z" fill="#AFB1B8"/>
<path d="M72.5559 13.6106H74.277L76.0428 21.9658H74.5494L74.2 20.0393H72.6649L72.3059 21.9658H70.79L72.5559 13.6106ZM74.027 19.0715L73.4277 15.5644L72.8283 19.0715H74.027Z" fill="#AFB1B8"/>
<path d="M77.469 13.6106H78.5908L80.7381 18.3768V13.6106H82.0681V21.9658H81.0009L78.8407 16.9903V21.9658H77.4658L77.469 13.6106Z" fill="#AFB1B8"/>
<path d="M85.1836 18.7801L83.3984 13.6223H84.9015L85.9912 16.9354L87.0136 13.6223H88.4846L86.7219 18.7801V21.9658H85.1836V18.7801Z" fill="#AFB1B8"/>
<path d="M47.2146 25.6189V26.0558H45.907V29.4509H45.3589V26.0558H44.0449V25.6189H47.2146Z" fill="#AFB1B8"/>
<path d="M51.3141 29.4512H50.891C50.8481 29.4537 50.8057 29.4407 50.7724 29.4148C50.7404 29.3925 50.7159 29.362 50.7019 29.3268L50.3238 28.4166H48.5097L48.1316 29.3268C48.1208 29.3649 48.1011 29.4001 48.0739 29.43C48.0403 29.4554 47.9982 29.4683 47.9553 29.4664H47.5322L49.1347 25.6345H49.6924L51.3141 29.4512ZM48.6604 28.0283H50.1731L49.5321 26.4688C49.4848 26.3509 49.4452 26.2303 49.4135 26.1078C49.3911 26.1806 49.3719 26.2504 49.3526 26.3111L49.295 26.4719L48.6604 28.0283Z" fill="#AFB1B8"/>
<path d="M54.0766 29.0748C54.177 29.0798 54.2775 29.0798 54.3779 29.0748C54.4645 29.0664 54.5503 29.0512 54.6343 29.0293C54.7128 29.0111 54.7899 28.9878 54.865 28.9595C54.9356 28.9322 55.0061 28.8988 55.0798 28.8655V28.0037H54.4388C54.4229 28.0046 54.4071 28.0023 54.3922 27.9971C54.3773 27.9919 54.3637 27.9838 54.3523 27.9734C54.3417 27.9648 54.3334 27.954 54.3279 27.9419C54.3223 27.9299 54.3197 27.9167 54.3202 27.9036V27.6093H55.5637V29.0779C55.4622 29.1466 55.355 29.2075 55.2432 29.2599C55.129 29.3133 55.0099 29.357 54.8875 29.3904C54.7564 29.4269 54.6224 29.4533 54.4869 29.4693C54.3315 29.4856 54.1753 29.4937 54.0189 29.4936C53.7425 29.4958 53.4683 29.4473 53.2113 29.351C52.9714 29.2596 52.7534 29.1234 52.5703 28.9504C52.3919 28.7757 52.2514 28.5695 52.1569 28.3436C52.0559 28.0896 52.0059 27.8199 52.0095 27.5486C52.0061 27.2755 52.055 27.0041 52.1537 26.7475C52.2459 26.5204 52.3866 26.3138 52.5671 26.1406C52.75 25.9682 52.9681 25.833 53.2081 25.7431C53.4825 25.6454 53.7738 25.597 54.067 25.6005C54.2162 25.6003 54.3652 25.6115 54.5125 25.6339C54.6428 25.654 54.7706 25.6865 54.8939 25.731C55.006 25.7709 55.1134 25.8217 55.2144 25.8827C55.3126 25.9426 55.4058 26.0095 55.4932 26.083L55.3394 26.3197C55.3273 26.3413 55.3094 26.3594 55.2874 26.3722C55.2654 26.3851 55.2402 26.392 55.2144 26.3925C55.1789 26.3914 55.1445 26.3809 55.115 26.3621C55.067 26.3379 55.0157 26.3075 54.958 26.2711C54.8898 26.2307 54.818 26.1961 54.7433 26.1679C54.6477 26.1317 54.5491 26.1032 54.4484 26.083C54.3142 26.0596 54.1779 26.0484 54.0414 26.0496C53.8299 26.0474 53.62 26.0834 53.4228 26.1558C53.2445 26.2235 53.0838 26.3271 52.9517 26.4592C52.8189 26.597 52.7174 26.7592 52.6536 26.9356C52.5105 27.3507 52.5105 27.7981 52.6536 28.2131C52.7238 28.3933 52.833 28.5576 52.9741 28.6955C53.1056 28.827 53.2651 28.9304 53.4421 28.999C53.6458 29.0652 53.8619 29.091 54.0766 29.0748Z" fill="#AFB1B8"/>
<path d="M59.1851 29.014H60.9351V29.4509H58.6499V25.6189H59.198L59.1851 29.014Z" fill="#AFB1B8"/>
<path d="M62.7556 29.4509H62.2075V25.6189H62.7556V29.4509Z" fill="#AFB1B8"/>
<path d="M64.7939 25.6371C64.8265 25.6547 64.8548 25.6785 64.8772 25.7069L67.22 28.5955C67.2168 28.5501 67.2168 28.5045 67.22 28.459C67.22 28.4165 67.22 28.374 67.22 28.3346V25.6038H67.6975V29.4512H67.4219C67.3811 29.4543 67.3401 29.447 67.3033 29.43C67.27 29.4109 67.2407 29.3862 67.2168 29.3571L64.8772 26.4716C64.8772 26.5171 64.8772 26.5595 64.8772 26.602C64.8772 26.6445 64.8772 26.684 64.8772 26.7204V29.4512H64.4189V25.6189H64.7042C64.7351 25.619 64.7657 25.6252 64.7939 25.6371Z" fill="#AFB1B8"/>
<path d="M71.7323 25.6189V26.0406H69.7901V27.3059H71.3637V27.7124H69.7901V29.0202H71.7323V29.4419H69.2261V25.6189H71.7323Z" fill="#AFB1B8"/>
<path d="M14.3035 1.95391L38.6385 8.49527V31.4173L14.3035 24.879V1.95391ZM12.7427 0V25.9925L40.196 33.3743V7.38482L12.7427 0Z" fill="#AFB1B8"/>
<path d="M27.4565 45.4402L0 38.0522V12.0625L27.4565 19.4474V45.4402Z" fill="#AFB1B8"/>
<path d="M13.1978 1.65958L37.2155 8.11891L27.0014 17.7912L2.98057 11.3288L13.1978 1.65958ZM12.7427 0L0 12.0631L27.4565 19.4478L40.196 7.38469L12.7427 0Z" fill="#AFB1B8"/>
<path d="M29.0015 43.978L40.1962 33.3774L29.0015 30.3647V43.978Z" fill="#AFB1B8"/>
</svg>

<svg fill="none" xmlns="http://www.w3.org/2000/svg" viewBox="0 0 89 46"><path d="M44.74 21.353a3.259 3.259 0 01-.57-2.057v-2.982c0-.915.189-1.61.567-2.085.378-.475 1.028-.712 1.949-.71.865 0 1.48.202 1.843.607.396.516.589 1.147.544 1.784v.7h-1.547v-.71a3.961 3.961 0 00-.045-.694.69.69 0 00-.221-.413.836.836 0 00-.561-.16.886.886 0 00-.59.17.81.81 0 00-.257.455c-.044.243-.064.49-.06.737v3.62a2 2 0 00.198 1.016.734.734 0 00.31.247.78.78 0 00.399.057.788.788 0 00.548-.164.748.748 0 00.23-.44c.037-.24.053-.483.049-.725v-.735h1.547v.67a2.914 2.914 0 01-.535 1.876c-.355.443-.961.664-1.852.664-.891 0-1.564-.236-1.946-.728zm6.446.031c-.391-.465-.587-1.141-.587-2.036V16.21c0-.886.196-1.556.587-2.011.39-.455 1.044-.682 1.961-.68.91 0 1.56.227 1.952.68.39.455.59 1.125.59 2.011v3.138c0 .886-.2 1.565-.597 2.033-.397.467-1.044.7-1.945.7-.9 0-1.567-.236-1.961-.697zm2.682-.753c.14-.29.204-.61.186-.928v-3.841a1.843 1.843 0 00-.183-.91.738.738 0 00-.316-.25.784.784 0 00-.408-.054.794.794 0 00-.41.054.75.75 0 00-.318.25c-.14.283-.204.596-.185.91v3.859c-.02.32.044.638.185.928a.96.96 0 00.327.23 1.008 1.008 0 00.796 0 .96.96 0 00.326-.23v-.018zm3.682-7.021h1.667l1.253 5.79 1.282-5.79h1.622l.163 8.356H62.34l-.128-5.807-1.238 5.807h-.961l-1.282-5.828-.119 5.828H57.4l.15-8.355zm7.856 0h2.596c1.496 0 2.244.791 2.244 2.373 0 1.515-.788 2.271-2.362 2.27h-.885v3.713h-1.602l.01-8.355zm2.218 3.571a1.136 1.136 0 00.881-.263c.184-.283.265-.614.231-.944a2.859 2.859 0 00-.077-.758.633.633 0 00-.118-.23.672.672 0 00-.202-.168 1.529 1.529 0 00-.715-.133h-.622v2.496h.622zm4.932-3.571h1.721l1.766 8.356h-1.494l-.349-1.927h-1.535l-.36 1.927H70.79l1.766-8.355zm1.471 5.462l-.6-3.508-.599 3.508h1.199zm3.442-5.462h1.122l2.147 4.767V13.61h1.33v8.355h-1.067l-2.16-4.976v4.976h-1.375l.003-8.355zm7.715 5.17l-1.786-5.158h1.504l1.09 3.313 1.022-3.313h1.47l-1.762 5.158v3.186h-1.538V18.78zm-37.969 6.839v.437h-1.308v3.395h-.548v-3.395h-1.314v-.437h3.17zm4.099 3.832h-.423a.177.177 0 01-.119-.036.196.196 0 01-.07-.088l-.378-.91H48.51l-.378.91a.258.258 0 01-.058.103.183.183 0 01-.119.036h-.423l1.603-3.832h.557l1.622 3.817zm-2.654-1.423h1.513l-.64-1.56a2.964 2.964 0 01-.12-.36l-.06.203-.058.16-.635 1.557zm5.417 1.047c.1.005.2.005.3 0 .087-.009.173-.024.257-.046a1.82 1.82 0 00.231-.07c.07-.027.141-.06.215-.093v-.862h-.641a.12.12 0 01-.087-.03.087.087 0 01-.032-.07v-.295h1.244v1.469a2.355 2.355 0 01-.676.312 2.655 2.655 0 01-.401.08 4.459 4.459 0 01-.468.024 2.252 2.252 0 01-.808-.143 1.937 1.937 0 01-.64-.4 1.849 1.849 0 01-.414-.607 2.076 2.076 0 01-.147-.795 2.155 2.155 0 01.144-.802c.092-.227.233-.433.413-.606.183-.173.401-.308.641-.398a2.46 2.46 0 01.859-.142c.15 0 .298.01.446.033a1.962 1.962 0 01.981.449l-.155.237a.14.14 0 01-.052.052.15.15 0 01-.073.02.196.196 0 01-.099-.03 1.923 1.923 0 01-.157-.09 1.372 1.372 0 00-.215-.104 1.873 1.873 0 00-.295-.085 2.255 2.255 0 00-.407-.033 1.743 1.743 0 00-.618.106 1.337 1.337 0 00-.471.303c-.133.138-.235.3-.298.477a1.954 1.954 0 000 1.277c.07.18.179.345.32.482.132.132.291.235.468.304.204.066.42.092.635.076zm5.108-.061h1.75v.437H58.65v-3.832h.548l-.013 3.395zm3.571.436h-.548v-3.83h.548v3.832zm2.038-3.813a.28.28 0 01.083.07l2.343 2.889a.972.972 0 010-.137v-2.855h.478v3.847h-.276a.24.24 0 01-.119-.021.314.314 0 01-.086-.073l-2.34-2.885v2.979h-.458V25.62h.285a.23.23 0 01.09.018zm6.938-.018v.422H69.79v1.265h1.574v.406H69.79v1.308h1.942v.422h-2.506v-3.823h2.506zM14.303 1.954l24.335 6.541v22.922L14.305 24.88V1.954zM12.743 0v25.992l27.453 7.382V7.384L12.743 0z" fill="#AFB1B8"/><path d="M27.456 45.44L0 38.052v-25.99l27.456 7.385V45.44z" fill="#AFB1B8"/><path d="M13.198 1.66l24.017 6.459-10.214 9.672-24.02-6.462 10.217-9.67zM12.743 0L0 12.063l27.456 7.385 12.74-12.063L12.743 0zm16.259 43.978l11.194-10.6-11.194-3.013v13.613z" fill="#AFB1B8"/></svg>
